X: 3813
T: Black Cat, The
R: jig
M: 6/8
K: Dminor
A|:"Dm"d2D DEF|"Am"A>BA E2F|"Gm"~G3 GFE|"Am"A,CE "Gm"G>FE|
"Dm"d2D DEF|"Am"A>BA E2F|"Gm"G3 "Am"A,CE|"Gm"G>FE "Dm"D2A:|
|:"Dm"d2e f>gf|"Am"ecA c>ef|"Gm"~g3 gfe|g>ba "Em"gfe|
"Dm"d2e ~f3|"A7"ea^g a3|"Am"Ace Ace|"Gm"g>fe "Dm"d2A:|

